X:18
T:Desponding (?)Negro,The. JJo.018
S:J.Jones MS,1801,N.Shrops.
A:N Shropshire
C:John Collins
Z:Neil Brookes 2006
M:3/4
L:1/8
Q:3/4=60
K:C
G2|c2c2 ce|d2 cd ef|g2 ag fe|g/e/ d3dd|!
g2gb af|a4dd|a2ac’ ba|b4b3c’|!
d’2 c’b ag|e2d2ga|b2 c’b a>g|g4z2|!
c4d2|e3dc2|e4f2|g3fe2|c’4g2|g2d2c2|A2fdB2|c2|]

